icons/linear-ele-communication-message-chat-round.svg

<svg xmlns="http://www.w3.org/2000/svg" width="32px" height="32px" viewBox="0 0 32 32" version="1.1">
    <title>linear-ele-communication-message-chat-round</title>
    <g id="linear-ele-communication-message-chat-round" stroke-width="1" fill-rule="evenodd">
        <path d="M16,3 C23.7149024,3 30,8.80162854 30,16 C30,23.1983715 23.7149024,29 16,29 C13.7147728,29 11.5076845,28.4903363 9.52995983,27.5317881 L9.146,27.338 L4.31615791,28.9487066 C3.5527259,29.2031215 2.83345744,28.5019864 3.03105345,27.7512285 L3.06376336,27.6486299 L4.602,23.549 L4.51347826,23.4351503 C2.96437611,21.3755184 2.08247742,18.9350367 2.00550543,16.3676112 L2,16 C2,8.80162854 8.28509758,3 16,3 Z M16,5 C9.35549892,5 4,9.94353747 4,16 C4,18.4666698 4.887697,20.8095323 6.50259326,22.7231679 C6.73595105,22.9996945 6.80172798,23.3807101 6.67459082,23.719471 L5.673,26.388 L8.92577782,25.3044104 C9.15526297,25.2279341 9.40328836,25.2376226 9.62434189,25.3291172 L9.7324103,25.3816615 C11.6024864,26.4341819 13.7542779,27 16,27 C22.6445011,27 28,22.0564625 28,16 C28,9.94353747 22.6445011,5 16,5 Z" id="&#24418;&#29366;" fill-rule="nonzero" />
    </g>
</svg>

<svg xmlns="http://www.w3.org/2000/svg" viewBox="0 0 32 32"><path fill="currentColor" d="M16 3c7.715 0 14 5.802 14 13s-6.285 13-14 13c-2.285 0-4.492-.51-6.47-1.468l-.384-.194-4.83 1.61a1 1 0 0 1-1.285-1.197l.033-.102 1.538-4.1-.089-.114c-1.549-2.06-2.43-4.5-2.507-7.067L2 16C2 8.802 8.285 3 16 3m0 2C9.355 5 4 9.944 4 16c0 2.467.888 4.81 2.503 6.723a1 1 0 0 1 .172.996l-1.002 2.669 3.253-1.084a1 1 0 0 1 .698.025l.108.053A12.756 12.756 0 0 0 16 27c6.645 0 12-4.944 12-11S22.645 5 16 5"/></svg>
